packages/ui-icons/svg/Line/filter.svg

<svg viewBox="0 0 1920 1920" version="1.1" xmlns="http://www.w3.org/2000/svg">
    <path d="M0 0.0110330244L741.970889 984.818788 741.970889 1658.38493 1244.63548 1909.71722 1244.63548 984.818788 1919.9669 88.275228 1831.81304 21.9667515 1134.30524 947.858157 1134.30524 1731.20289 852.301133 1590.20084 852.301133 947.858157 221.322469 110.341277 1483.61079 110.341277 1483.61079 0.0110330244z" stroke="none" stroke-width="1" fill-rule="evenodd"/>
</svg>

<svg viewBox="0 0 1920 1920" xmlns="http://www.w3.org/2000/svg">
    <path d="m0 .011 741.97 984.808v673.566l502.665 251.332V984.82l675.332-896.544-88.154-66.308-697.508 925.891v783.345L852.301 1590.2V947.858L221.322 110.341h1262.289V.011z" fill-rule="evenodd"/>
</svg>
